!!!COM: Beethoven
!!!OTL: Zehn Variationen uber "la stessa, la stessissima" aus "Falstaff" von A. Salieri
!!!Variation: Variation 2 a
**function	**harm	**kern	**kern
*	*	*clefF4	*clefG2
*	*	*k[b-e-]	*k[b-e-]
*M4/4	*M4/4	*M4/4	*M4/4
*B-:	*B-:	*B-:	*B-:
=39	=39	=39	=39
*	*	*	*^
1T	1I	1BB-	(4B-	16B-LL
.	.	.	.	16f
.	.	.	.	16b-
.	.	.	.	16fJJ
.	.	.	4c	16cLL
.	.	.	.	16f
.	.	.	.	16b-
.	.	.	.	16fJJ
.	.	.	4c#	16c#LL
.	.	.	.	16f
.	.	.	.	16b-
.	.	.	.	16fJJ
.	.	.	4d)	16dLL
.	.	.	.	16f
.	.	.	.	16b-
.	.	.	.	16fJJ
=40	=40	=40	=40	=40
*	*	*^	*	*
1T	1V	1F	(4F	16aLL	(4a
.	.	.	.	16e-	.
.	.	.	.	16f	.
.	.	.	.	16e-JJ	.
.	.	.	4G	16b-LL	4b-
.	.	.	.	16e-	.
.	.	.	.	16f	.
.	.	.	.	16e-JJ	.
.	.	.	4G#	16bLL	4b
.	.	.	.	16e-	.
.	.	.	.	16f	.
.	.	.	.	16e-JJ	.
.	.	.	4A)	16ccLL	4cc)
.	.	.	.	16e-	.
.	.	.	.	16f	.
.	.	.	.	16e-JJ	.
*	*	*v	*v	*	*
=41	=41	=41	=41	=41
1T	1V	1FF 1F	(4c	16cLL
.	.	.	.	16f
.	.	.	.	16a
.	.	.	.	16fJJ
.	.	.	4c#	16c#LL
.	.	.	.	16f
.	.	.	.	16a
.	.	.	.	16fJJ
.	.	.	4d	16dLL
.	.	.	.	16f
.	.	.	.	16a
.	.	.	.	16fJJ
.	.	.	4e-)	16e-LL
.	.	.	.	16f
.	.	.	.	16a
.	.	.	.	16fJJ
=42	=42	=42	=42	=42
*	*	*^	*	*
1T	1I	1BB-	4r	16b-LL	(4b-
.	.	.	.	16d	.
.	.	.	.	16f	.
.	.	.	.	16dJJ	.
.	.	.	2A	16ccLL	4cc
.	.	.	.	16e-	.
.	.	.	.	16f	.
.	.	.	.	16e-JJ	.
.	.	.	.	16cc#LL	4cc#
.	.	.	.	16e-	.
.	.	.	.	16f	.
.	.	.	.	16e-JJ	.
.	.	.	4B-	16ddLL	4dd)
.	.	.	.	16d	.
.	.	.	.	16f	.
.	.	.	.	16dJJ	.
*	*	*v	*v	*	*
=43	=43	=43	=43	=43
1T	1IV	1E- 1B-	(4g	16gLL
.	.	.	.	16ee-
.	.	.	.	16gg
.	.	.	.	16ee-JJ
.	.	.	4a-	16a-LL
.	.	.	.	16ee-
.	.	.	.	16gg
.	.	.	.	16ee-JJ
.	.	.	4a	16aLL
.	.	.	.	16ee-
.	.	.	.	16gg
.	.	.	.	16ee-JJ
.	.	.	4b-)	16b-LL
.	.	.	.	16ee-
.	.	.	.	16gg
.	.	.	.	16ee-JJ
=44	=44	=44	=44	=44
1T	1I	1BB- 1B-	16ffLL	(4ff
.	.	.	16b-	.
.	.	.	16dd	.
.	.	.	16b-JJ	.
.	.	.	16ggLL	4gg
.	.	.	16b-	.
.	.	.	16dd	.
.	.	.	16b-JJ	.
.	.	.	16aaLL	4aa
.	.	.	16b-	.
.	.	.	16dd	.
.	.	.	16b-JJ	.
.	.	.	16bb-LL	4bb-)
.	.	.	16b-	.
.	.	.	16dd	.
.	.	.	16b-JJ	.
*	*	*	*v	*v
=45	=45	=45	=45
4T	4V7b	4AA' 4F'	16ccc'LL
.	.	.	16ee-
.	.	.	16ff
.	.	.	16ee-JJ
4T	4I	4BB-' 4F'	16bb-'LL
.	.	.	16dd
.	.	.	16ff
.	.	.	16ddJJ
4T	4V7b	4AA' 4F'	16ccc'LL
.	.	.	16ee-
.	.	.	16ff
.	.	.	16ee-JJ
4T	4I	4BB-' 4F'	16bb-'LL
.	.	.	16dd
.	.	.	16ff
.	.	.	16dd-JJ
=46	=46	=46	=46
1D	1V	4FF 4F	16aaLL
.	.	.	16ff
.	.	.	16cc
.	.	.	16aJJ
.	.	4r	16fLL
.	.	.	16cc
.	.	.	16a
.	.	.	16fJJ
.	.	2r	16cLL
.	.	.	16a
.	.	.	16f
.	.	.	16cJJ
.	.	.	16ALL
.	.	.	16f
.	.	.	16c
.	.	.	16AJJ
*-	*-	*-	*-
